T: Farewell To Rothbury
M: 3/4
L: 1/8
K: Gmaj
|:de | g3 e de| A2 G2 AB | c3 B cd | d4 de|
g3 e de | A2 G2 AB | d3 B AG | G4 :|
|:AB | c3 B c/d/e| A2 G2 AB | c3 B cd | d4 AB |
c3 e g/f/e | d3 B AB | d3 B AG | G4:|
